www/assets/duotune/abstract/abs020.svg

<svg width="24" height="24" viewBox="0 0 24 24" fill="none" xmlns="http://www.w3.org/2000/svg">
<path d="M17.302 11.35L12.002 20.55H21.202C21.802 20.55 22.202 19.85 21.902 19.35L17.302 11.35Z" fill="currentColor"/>
<path opacity="0.3" d="M12.002 20.55H2.802C2.202 20.55 1.80202 19.85 2.10202 19.35L6.70203 11.45L12.002 20.55ZM11.302 3.45L6.70203 11.35H17.302L12.702 3.45C12.402 2.85 11.602 2.85 11.302 3.45Z" fill="currentColor"/>
</svg>

<?xml version="1.0" encoding="UTF-8"?>
<svg id="Camada_1" xmlns="http://www.w3.org/2000/svg" version="1.1" viewBox="0 0 24 24">
  <!-- Generator: Adobe Illustrator 29.0.0, SVG Export Plug-In . SVG Version: 2.1.0 Build 186)  -->
  <defs>
    <style>
      .st0, .st1 {
        fill: #fff;
      }

      .st1 {
        isolation: isolate;
        opacity: .3;
      }
    </style>
  </defs>
  <path class="st0" d="M17.3,11.4l-5.3,9.2h9.2c.6,0,1-.7.7-1.2l-4.6-8Z"/>
  <path class="st1" d="M12,20.5H2.8c-.6,0-1-.7-.7-1.2l4.6-7.9,5.3,9.1ZM11.3,3.5l-4.6,7.9h10.6l-4.6-7.9c-.3-.6-1.1-.6-1.4,0Z"/>
</svg>
